src/icons/config-change.svg

<svg  viewBox="0 0 14 15" fill="none" xmlns="http://www.w3.org/2000/svg">
<path fill-rule="evenodd" clip-rule="evenodd" d="M4.39634 0.302246V0.302564C2.02606 0.324899 0.0862748 2.41679 0.0388587 4.7758H0.0259588L0 14.3135L9.55495 14.3393L9.55564 14.3381C11.9112 14.2968 13.9232 12.3627 13.9701 10.0162H13.9737L14 0.328349L4.39634 0.302246ZM6.17472 3.31036C5.60698 3.31036 4.56058 3.66814 4.50967 3.72113C4.44907 3.78421 4.44676 3.84511 4.46621 3.91122C4.4986 4.02126 4.69595 4.26929 4.91373 4.48696C5.00072 4.57389 5.09068 4.66308 5.18163 4.75325C5.52767 5.09634 5.88804 5.45364 6.15379 5.7541C6.03961 5.86467 5.92542 5.98063 5.81124 6.09659C5.62586 6.28485 5.44048 6.47312 5.25511 6.63832C5.02481 6.41479 4.77155 6.15553 4.52047 5.89851C4.34828 5.72224 4.17711 5.54701 4.01507 5.38508C3.97976 5.3498 3.94454 5.31314 3.90957 5.27673C3.80148 5.1642 3.69578 5.05417 3.59709 4.99519C3.46227 4.91462 3.35719 4.91168 3.23484 4.99519C3.01944 5.14219 2.75998 6.3235 2.83774 7.00729C2.9071 7.61746 3.15289 8.24764 3.67371 8.83137C4.20678 9.42885 4.86826 9.73086 5.48502 9.84786C6.10733 9.96596 6.68728 9.92316 7.31724 9.70164C7.50866 9.89468 7.69446 10.0761 7.88053 10.2578L7.88055 10.2579C8.0374 10.411 8.19444 10.5644 8.35521 10.7251C8.42046 10.7903 8.48469 10.8576 8.54874 10.9247C8.80965 11.1982 9.06756 11.4685 9.37931 11.5814C9.9233 11.7784 10.7535 11.5948 11.0722 10.8505C11.1594 10.6465 11.1931 10.3955 11.1697 10.1681C11.1518 9.99452 11.0847 9.73249 10.9349 9.54869L10.9346 9.54819C10.8581 9.43649 10.4143 9.00766 10.4143 9.00766V9.00769C10.3365 8.93048 10.2556 8.85309 10.1731 8.77415L10.1731 8.77414C10.0794 8.68447 9.98358 8.5928 9.88788 8.49714L9.41415 8.02377C9.36734 7.97698 9.32073 7.92573 9.27433 7.87471L9.27431 7.87468C9.15927 7.74818 9.04556 7.62314 8.93342 7.57119C8.65181 7.4408 8.34387 7.77607 8.4667 8.03765C8.52024 8.15174 8.64416 8.26408 8.76997 8.37813C8.82103 8.42441 8.87239 8.47098 8.9195 8.51806C9.08144 8.67988 9.24743 8.84225 9.41237 9.00358L9.4125 9.00371L9.41259 9.00379C9.57602 9.16366 9.73843 9.32252 9.89485 9.47884C9.91069 9.49468 9.92632 9.51065 9.94182 9.52663L9.94221 9.52707C9.96379 9.54931 9.98503 9.57156 10.0061 9.59359L10.0061 9.59364C10.0388 9.62792 10.071 9.66165 10.1032 9.69393C10.2445 9.8432 10.4319 10.0488 10.4617 10.1207L10.4634 10.1255L10.4638 10.1266V10.1266L10.4661 10.1333C10.6356 10.6795 9.99168 11.1803 9.50468 10.8852C9.43664 10.844 9.38472 10.7839 9.32856 10.7188C9.29889 10.6845 9.26804 10.6487 9.23301 10.6137C9.01443 10.3953 8.77528 10.1607 8.5333 9.92335L8.53318 9.92323C8.15917 9.55641 7.77843 9.18297 7.45652 8.85226C6.5433 9.34818 5.51161 9.39995 4.5933 8.74782C4.04766 8.36041 3.75966 7.83517 3.611 7.36238C3.45869 6.87787 3.4521 6.38689 3.58312 5.94206L4.73959 7.09777C4.78164 7.1398 4.82127 7.18462 4.85996 7.22837C4.94457 7.32406 5.02468 7.41466 5.11576 7.45981C5.33824 7.57007 5.51543 7.38822 5.73451 7.16337C5.76428 7.13282 5.79483 7.10147 5.82636 7.06995L6.23043 6.66611C6.27955 6.61702 6.34607 6.55581 6.41953 6.48821L6.41953 6.48821C6.64482 6.28089 6.93539 6.0135 6.98978 5.85155C7.05745 5.65006 6.89171 5.48634 6.70075 5.2977L6.64842 5.24581C6.23552 4.83315 5.85711 4.4519 5.47805 4.06221C6.22223 3.89181 7.05665 3.96805 7.80488 4.59134C8.51628 5.18397 8.76286 5.99395 8.74537 6.61735C8.74458 6.64519 8.74124 6.6735 8.73788 6.70193C8.73016 6.76735 8.72236 6.83342 8.74537 6.89587C8.86811 7.15944 9.20982 7.22859 9.38623 6.96551C9.43948 6.88616 9.43729 6.7319 9.43559 6.6115C9.4353 6.59148 9.43503 6.5724 9.43503 6.55475C9.43503 5.86132 9.20314 5.13899 8.65481 4.47997C7.91094 3.58605 6.95514 3.31036 6.17472 3.31036ZM9.59671 12.5012C11.009 12.4574 12.089 11.4222 12.1311 10.0111H12.1274L12.1647 2.13845L4.39105 2.13342C2.93429 2.13729 1.88312 3.36159 1.8532 4.80853L1.81595 12.4958L9.59671 12.5012Z" fill="#27AE60"/>
</svg>

<svg viewBox="0 0 14 15" fill="none" xmlns="http://www.w3.org/2000/svg"><path fill-rule="evenodd" clip-rule="evenodd" d="M4.396.302C2.026.326.086 2.418.04 4.777H.026L0 14.313l9.555.026c2.356-.042 4.368-1.976 4.415-4.323h.004L14 .328 4.396.302zM6.175 3.31c-.568 0-1.614.358-1.665.411-.06.063-.063.124-.044.19.033.11.23.358.448.576l.268.266c.346.343.706.7.972 1.001-.114.11-.229.227-.343.343-.185.188-.37.376-.556.541-.23-.223-.483-.482-.735-.74-.172-.176-.343-.351-.505-.513a7.388 7.388 0 01-.105-.108 1.757 1.757 0 00-.313-.282c-.135-.08-.24-.083-.362 0-.216.147-.475 1.329-.397 2.012.07.61.315 1.24.836 1.824.533.598 1.194.9 1.811 1.017a3.395 3.395 0 001.832-.146c.192.193.377.374.564.556.156.153.313.306.474.467.065.065.13.133.194.2.26.273.519.543.83.656.544.197 1.375.014 1.693-.73.087-.205.121-.456.098-.683-.018-.173-.085-.436-.235-.62-.077-.112-.52-.54-.52-.54-.079-.078-.16-.155-.242-.234-.094-.09-.19-.181-.285-.277l-.474-.473a4.36 4.36 0 01-.14-.15c-.115-.126-.228-.25-.34-.303-.282-.13-.59.205-.467.467.053.114.177.226.303.34.051.046.102.093.15.14.161.162.327.324.492.486.164.16.326.319.483.475l.047.048.064.067.097.1c.142.15.329.355.359.427l.001.005.003.007c.17.547-.474 1.047-.961.752a.77.77 0 01-.176-.166c-.03-.034-.061-.07-.096-.105-.219-.219-.458-.453-.7-.69-.374-.368-.755-.741-1.076-1.072-.914.496-1.945.548-2.864-.104a2.634 2.634 0 01-.982-1.386 2.433 2.433 0 01-.028-1.42L4.74 7.098c.042.042.081.087.12.13.085.096.165.187.256.232.222.11.4-.072.619-.297l.091-.093.404-.404c.05-.049.116-.11.19-.178.225-.207.515-.475.57-.636.067-.202-.098-.366-.29-.554l-.052-.052c-.412-.413-.79-.794-1.17-1.184.744-.17 1.579-.094 2.327.53.711.592.958 1.402.94 2.025a.959.959 0 01-.007.085c-.008.065-.016.131.007.194.123.263.465.333.641.07.053-.08.051-.234.05-.354l-.001-.057c0-.694-.232-1.416-.78-2.075a3.17 3.17 0 00-2.48-1.17zm3.422 9.191c1.412-.044 2.492-1.079 2.534-2.49h-.004l.038-7.873-7.774-.005c-1.457.004-2.508 1.229-2.538 2.676l-.037 7.687 7.78.005z" fill="#27AE60"/></svg>
